X: 100
Q: "Moderato."
M: 3/4
L: 1/4
K: A
[|\
(c d) e | (e d) c | (c B) z | B2 c | (d c) B |
c2 d | e3 | f2 f | (e d) c "^rit."| (d c) B | A2 z |]


